X:104
T:Sire cuens j'ai vielé
C:Colin Muset
Z:Transcrit et/ou corrigé par B@D - 2005-03-17
Z:Pour toute observation mailto:-@-
M:3/4
L:1/4
%%staves [1 2]
%%continueall 1
K:F
V:1
B2B | B2B | A2B | G2z | A2F | F2F | G2(A/B/) | G2z | B2B | B2B | A2B | G2z |
w:1.~Si-re cu-ens j'ai vie-lé de-vant vous en vos-tre os-tel, si ne m'a-vez riens do-né
w:2.~Si-re cuens car com-man-dez de moi vos-tre vo-lon-_té. Si-re, s'il vous vient a gré,
w:3.~Ainz me dit~: "Sire En-ge-lé, en quel terre a-vez es-_té, qui n'a-vez riens con-ques-té~?
A2F | F2F | G2(A/B/) | G2z | G3 | A2(B/A/) | G3 | F2z | F2F | G2G | A2(B/A/) | G2F |
w:ne mes ga-ges a-qui-_té~: c'est vi-la-_ni-e~! foi que doi sain-te Ma-_ri-e,
w:un biau don car me do-_nez par cour-toi-_si-e~! ta-lent ai, n'en dou-tez_ mi-e,
w:trop vous es-tes dé-por-_té a val la_ vil-le. vez com vos-tre ma-le_ pli-e~!
G2A | B2c | (BA)G | F2F | A2c | B2G | A2B | A2G | A2c | c2c | (BA)G | F2F |]
w:en si ne vous sieur-_ré mi-e m'au-mos-niè-re~est mal gar-ni-e et ma bour-se mal-_far-si-e.
w:de ra-ler a ma-_mes ni-e~: quant g'i vois boursse es-gar-ni-e ma fa-me ne me-_rit mi-e.
w:ele est Lien de vent_ far-si-e~! hon-niz soit qui a en-vi-e d'es-tre~en vos-tre com-_pai-gni-e~!
V:2
G2x | G2x | F3 | E2x | F2x | D3 | E2x | E2x | G3 | F3 | F3 | _E3 |
F3 | D3 | E3 | E3 | E3 |F3 | D3 | D3 | D3 | E3 | E3 | E3 |
E3 | G3 | G3 | D3 | F3 | G3 | F3 | F3 | F3 | A3 | G3 | D3 |]




%%header "$P0	 $IR 	$P1"
%%footer $D - Éditions Galouvielle - 2009 - À usage librement privé dans le cadre familial

